X:1
T:Title
%%score { ( 1 3 ) | ( 2 4 ) }
L:1/8
M:4/4
K:Ab
V:1 treble nm="Grand Piano"
V:3 treble 
V:2 bass 
V:4 bass 
V:1
 z4 z2[Q:1/4=100] E>E | [CA]2 c>c e2 G>G | A2- [DA-]2 [CA]2 A>B | c2 A>B c2 A>B | c6 z2 | %5
 [Fd]>[Fd] [Fd]>[Fd] [EB]2 [EB]>[EB] | [Ee]>[Ee] [Ee]>[Ee] [CA]2 [EA]>[FB] | c2 c>c d2 c>B | %8
[M:3/4] [CA]6 |[M:1/4] c>A |[M:4/4] F6 z2 | z2 C>C C2 [Ec]>[Ec] | %12
 [EB]>[EB] [EB]>[EB] [=Dc]>[DB] [DA]>[DF] |[M:9/8] z2 G- G/A/ e2- eE>E | %14
[M:4/4] E>A c>d c2 [CE]>[CE] | [DF]>[FA] [Fd]>[Fe] [Fd]2 F>F[Q:1/4=94][Q:1/4=88][Q:1/4=81] | %16
 E2 c>d e<c B>B |[M:3/4] [CA]6 |] %18
V:2
 z4 z2 E,>E, | [A,,E,]2 [A,E]>[A,E] [E,G,E]2 [E,D]>[E,D] | E,2 F,2 E,2 A,>B, | C2 A,>B, C2 A,>B, | %4
 C2 [C,G,]>[C,G,] [C,G,]2 [F,=A,F]>[F,A,F] | %5
 [B,,B,]>[B,,B,] [B,,A,]>[B,,A,] [E,G,]2 [E,G,]>[D,G,] | %6
 [C,A,]>[C,A,] [C,A,]>[C,A,] [F,A,]2 [C,A,]>[D,A,] | %7
 [E,A,E]2 [E,A,E]>[E,A,E] [E,G,E]2 [E,A,E]>[E,D] |[M:3/4] [A,,E,]6 |[M:1/4] z2 | %10
[M:4/4] z2 [D,A,]>[D,A,] [D,A,]2 z2 | z2 [A,,A,]>[A,,A,] [A,,A,]2 [A,,A,]>[A,,A,] | %12
 [B,,G,]>[B,,G,] [B,,G,]>[B,,G,] [B,,F,]>[B,,F,] [B,,F,]>[B,,A,] | %13
[M:9/8][K:treble] G,2 B,- B,/C/ [DB]2- [DB][K:bass][E,G,D]>[E,G,D] | %14
[M:4/4] [A,C]>[A,C] [A,E]>[K:treble][A,F] [A,E]2[K:bass] [A,,A,]>[A,,A,] | %15
 [D,A,]>[D,A,] [D,A,]>[D,A,] [D,A,]2 [D,A,D]>[D,A,D] | %16
 [E,A,C]2 [E,A,E]>[E,B,E] [E,CE]<[E,A,E] [E,G,D]>[E,G,D] |[M:3/4] [A,,E,A,]6 |] %18
V:3
 x8 | x8 | C2 z2 z4 | x8 | z2 =E>E E2 c>c | x8 | x8 | x8 |[M:3/4] x6 |[M:1/4] x2 | %10
[M:4/4] z2 D>D D2 A>F | E6 z2 | x8 |[M:9/8] .E6 z3 |[M:4/4] x8 | x8 | x8 |[M:3/4] x6 |] %18
V:4
 x8 | x8 | A,,6 z2 | x8 | x8 | x8 | x8 | x8 |[M:3/4] x6 |[M:1/4] x2 |[M:4/4] x8 | x8 | x8 | %13
[M:9/8][K:treble] E,6- E,[K:bass] z z |[M:4/4] x7/2[K:treble] x5/2[K:bass] x2 | x8 | x8 | %17
[M:3/4] x6 |] %18

